X: 01058
T: JIMMY'S SONG
C: Bob McQuillen Aug'73
B: Bob's Note Book 1 #58
%R: march, reel
Z: 2019 John Chambers <jc:trillian.mit.edu>
M: C
L: 1/8
K: D
A2 \
| d2A2 A2d2 | BdcB A2AG | F2D2 A2d2 | edcd e2de |\
| f2d2 d2f2 | edcB A2Bc | d2A2 ABAG | F2D2 D2  :|
|: de \
| f2d2 d2de | f2d2 d2ef | g3f  e3d  | c2e2 A2AG |\
| F2A2 d2f2 | edcB A2Bc | d2A2 ABAG | F2D2 D2  :|
%%begintext align
%% For Jimmy Burgess at
%% Perkins School, Lamaster, Mass.
%%endtext

%%sep 1 1 500

%%sep 1 1 500

